data/arweave/assets/8X7JO-F6sumwynRXbi5YhXHuqKbGlMLPE6zMOR_rWXc/logo.svg

<?xml version="1.0" encoding="UTF-8"?>
<svg fill="none" viewBox="0 0 80 81" xmlns="http://www.w3.org/2000/svg">
<path d="m32.292 45.68c-1.0187 1.7645-3.5657 1.7645-4.5844 0l-22.349-38.71c-1.0188-1.7645 0.25462-3.9702 2.2922-3.9702h44.698c2.0375 0 3.3109 2.2057 2.2921 3.9702l-22.349 38.71z" fill="#000"/>
<path d="m27.708 45.68c1.0187 1.7645 3.5656 1.7645 4.5844 0l22.349-38.71c0.0056-0.00966 0.0111-0.01932 0.0166-0.02898l-18.928 32.784-21.203-36.725h-6.8765c-2.0375 0-3.3111 2.2057-2.2923 3.9702l22.349 38.71z" clip-rule="evenodd" fill="url(#a)" fill-rule="evenodd"/>
<g filter="url(#b)">
<rect x="25" y="35" width="30" height="11" rx="2" fill="#000"/>
</g>
<path d="m34.045 40.128c0.2027 0.032 0.3867 0.1147 0.552 0.248 0.1707 0.1333 0.304 0.2987 0.4 0.496 0.1014 0.1973 0.152 0.408 0.152 0.632 0 0.2827-0.072 0.5387-0.216 0.768-0.144 0.224-0.3546 0.4027-0.632 0.536-0.272 0.128-0.5946 0.192-0.968 0.192h-2.08v-5.576h2c0.3787 0 0.7014 0.064 0.968 0.192 0.2667 0.1227 0.4667 0.2907 0.6 0.504 0.1334 0.2133 0.2 0.4533 0.2 0.72 0 0.3307-0.0906 0.6053-0.272 0.824-0.176 0.2133-0.4106 0.368-0.704 0.464zm-2.064-0.296h1.224c0.3414 0 0.6054-0.08 0.792-0.24 0.1867-0.16 0.28-0.3813 0.28-0.664s-0.0933-0.504-0.28-0.664c-0.1866-0.16-0.456-0.24-0.808-0.24h-1.208v1.808zm1.288 2.568c0.3627 0 0.6454-0.0853 0.848-0.256 0.2027-0.1707 0.304-0.408 0.304-0.712 0-0.3093-0.1066-0.552-0.32-0.728-0.2133-0.1813-0.4986-0.272-0.856-0.272h-1.264v1.968h1.288zm3.6183-4.384v1.864h2.032v0.6h-2.032v1.92h2.272v0.6h-3v-5.584h3v0.6h-2.272zm6.8055-0.592v0.592h-1.52v4.984h-0.728v-4.984h-1.528v-0.592h3.776zm4.1922 4.336h-2.432l-0.448 1.24h-0.768l2.016-5.544h0.84l2.008 5.544h-0.768l-0.448-1.24zm-0.208-0.592-1.008-2.816-1.008 2.816h2.016z" fill="#fff"/>
<defs>
<filter id="b" x="0" y="20" width="80" height="61" color-interpolation-filters="sRGB" filterUnits="userSpaceOnUse">
<feFlood flood-opacity="0" result="BackgroundImageFix"/>
<feColorMatrix in="SourceAlpha" result="hardAlpha" values="0 0 0 0 0 0 0 0 0 0 0 0 0 0 0 0 0 0 127 0"/>
<feOffset dy="10"/>
<feGaussianBlur stdDeviation="12.5"/>
<feColorMatrix values="0 0 0 0 0 0 0 0 0 0 0 0 0 0 0 0 0 0 0.1 0"/>
<feBlend in2="BackgroundImageFix" result="effect1_dropShadow"/>
<feBlend in="SourceGraphic" in2="effect1_dropShadow" result="shape"/>
</filter>
<linearGradient id="a" x1="5" x2="25.861" y1="9.0301" y2="44.605" gradientUnits="userSpaceOnUse">
<stop stop-color="#B288DE" offset="0"/>
<stop stop-color="#9853BB" offset="1"/>
</linearGradient>
</defs>
</svg>

<svg width="80" height="81" viewBox="0 0 80 81" fill="none" xmlns="http://www.w3.org/2000/svg">
<path d="M32.2922 45.6802C31.2735 47.4447 28.7265 47.4447 27.7078 45.6802L5.35869 6.97025C4.33992 5.20574 5.61331 3 7.65085 3H52.3493C54.3868 3 55.6602 5.20574 54.6414 6.97025L32.2922 45.6802Z" fill="black"/>
<path fill-rule="evenodd" clip-rule="evenodd" d="M27.7078 45.6802C28.7265 47.4447 31.2734 47.4447 32.2922 45.6802L54.6414 6.97025C54.647 6.96059 54.6525 6.95093 54.658 6.94127L35.7303 39.7248L14.5273 3H7.65084C5.61331 3 4.33978 5.20574 5.35855 6.97025L27.7078 45.6802Z" fill="url(#paint0_linear)"/>
<g filter="url(#filter0_d)">
<rect x="25" y="35" width="30" height="11" rx="2" fill="black"/>
</g>
<path d="M34.0447 40.128C34.2474 40.16 34.4314 40.2427 34.5967 40.376C34.7674 40.5093 34.9007 40.6747 34.9967 40.872C35.0981 41.0693 35.1487 41.28 35.1487 41.504C35.1487 41.7867 35.0767 42.0427 34.9327 42.272C34.7887 42.496 34.5781 42.6747 34.3007 42.808C34.0287 42.936 33.7061 43 33.3327 43H31.2527V37.424H33.2527C33.6314 37.424 33.9541 37.488 34.2207 37.616C34.4874 37.7387 34.6874 37.9067 34.8207 38.12C34.9541 38.3333 35.0207 38.5733 35.0207 38.84C35.0207 39.1707 34.9301 39.4453 34.7487 39.664C34.5727 39.8773 34.3381 40.032 34.0447 40.128ZM31.9807 39.832H33.2047C33.5461 39.832 33.8101 39.752 33.9967 39.592C34.1834 39.432 34.2767 39.2107 34.2767 38.928C34.2767 38.6453 34.1834 38.424 33.9967 38.264C33.8101 38.104 33.5407 38.024 33.1887 38.024H31.9807V39.832ZM33.2687 42.4C33.6314 42.4 33.9141 42.3147 34.1167 42.144C34.3194 41.9733 34.4207 41.736 34.4207 41.432C34.4207 41.1227 34.3141 40.88 34.1007 40.704C33.8874 40.5227 33.6021 40.432 33.2447 40.432H31.9807V42.4H33.2687ZM36.887 38.016V39.88H38.919V40.48H36.887V42.4H39.159V43H36.159V37.416H39.159V38.016H36.887ZM43.6925 37.424V38.016H42.1725V43H41.4445V38.016H39.9165V37.424H43.6925ZM47.8847 41.76H45.4527L45.0047 43H44.2367L46.2527 37.456H47.0927L49.1007 43H48.3327L47.8847 41.76ZM47.6767 41.168L46.6687 38.352L45.6607 41.168H47.6767Z" fill="white"/>
<defs>
<filter id="filter0_d" x="0" y="20" width="80" height="61" filterUnits="userSpaceOnUse" color-interpolation-filters="sRGB">
<feFlood flood-opacity="0" result="BackgroundImageFix"/>
<feColorMatrix in="SourceAlpha" type="matrix" values="0 0 0 0 0 0 0 0 0 0 0 0 0 0 0 0 0 0 127 0" result="hardAlpha"/>
<feOffset dy="10"/>
<feGaussianBlur stdDeviation="12.5"/>
<feColorMatrix type="matrix" values="0 0 0 0 0 0 0 0 0 0 0 0 0 0 0 0 0 0 0.1 0"/>
<feBlend mode="normal" in2="BackgroundImageFix" result="effect1_dropShadow"/>
<feBlend mode="normal" in="SourceGraphic" in2="effect1_dropShadow" result="shape"/>
</filter>
<linearGradient id="paint0_linear" x1="5" y1="9.03013" x2="25.861" y2="44.6052" gradientUnits="userSpaceOnUse">
<stop stop-color="#B288DE"/>
<stop offset="1" stop-color="#9853BB"/>
</linearGradient>
</defs>
</svg>
